X:79
T: HERMANN FLA LAERM AN
N: K1605
O: Europa, Mitteleuropa, Deutschland, Westfalen ?
R: Kinder -, Ansinge - Lied, Bettel - Reim
M: 2/4
L: 1/8
K: C
 | G2EA | G2E
G | G2EA | G2E
E | G2GA | G2E
E | G2GA | G2E
G | A2GG | G2Ez

@@@ Tune index: 7416
